X:33
T: Ősszel érik
O: Rimóc (Nógrád)
Q: "Tempo guisto"
M:4/4
L:1/4
K:F
A>B A/G/F/C/ | F<G A<G | D2 D z | 
d<c A c | B<A G<c | A2 A z | 
d<c A c | B A D/E/F/G/ | A2 B z | 
A>B A/G/F/C/ | FG A<G | D2 D z | 

